!!!COM: Bach, Johann Sebastian
!!!CDT: 1685/3//-1750/7/28/
!!!OTL@@DE: Nun danket alle Gott
!!!OTL@EN:  From the depths of my heart
!!!AGN: 4-Part Chorale
!!!SCT: BH 032
!!!SCT: BWV 386
**harm	**root	**kern	**kern	**kern	**kern
!	!	!bass	!tenor	!alto	!soprno
*	*Iorgan	*Iorgan	*Iorgan	*Iorgan	*Iorgan
*M4/4	*M4/4	*M4/4	*M4/4	*M4/4	*M4/4
*met(c)	*met(c)	*met(c)	*met(c)	*met(c)	*met(c)
*MM60	*MM60	*MM60	*MM60	*MM60	*MM60
*k[f#c#]	*k[f#c#]	*k[f#c#]	*k[f#c#]	*k[f#c#]	*k[f#c#]
*D:	*D:	*D:	*D:	*D:	*D:
*>[A,A,B]	*>[A,A,B]	*>[A,A,B]	*>[A,A,B]	*>[A,A,B]	*>[A,A,B]
*>A	*>A	*>A	*>A	*>A	*>A
I	4AA	4D	4f#	4dd	4aa
=1	=1	=1	=1	=1	=1
I	4AA	8d	4f#	4dd	4aa
.	.	8e	.	.	.
Ib	4AA	8f#	4f#	4dd	4aa
.	.	8d	.	.	.
IV	4DD	8G	4g	4dd	4bb
.	.	8A	.	.	.
IVb	4DD	8B	4g	4dd	4bb
.	.	8G	.	.	.
=2	=2	=2	=2	=2	=2
I;	2AA;	2d;	2f#;	2dd;	2aa;
r	4r	4r	4r	4r	4r
vib	4FF#	4d	4b	4dd	4ff#
=3	=3	=3	=3	=3	=3
V7b	4EE	4c#	4a	4ee	4gg
I	4AA	4d	4a	4dd	4ff#
V7	4EE	8A	4a	4cc#	4ee
.	.	8G	.	.	.
Ib	4AA	8F#	4a	4dd	8.ff#
.	.	8D	.	.	.
.	.	.	.	.	16gg
=4	=4	=4	=4	=4	=4
V7	2EE	2A	8a	8dd	2ee
.	.	.	16g	8b	.
.	.	.	16f#	.	.
.	.	.	4g	4cc#	.
I;	4AA;	4D;	4f#;	4a;	4dd;
=:|!	=:|!	=:|!	=:|!	=:|!	=:|!
*>B	*>B	*>B	*>B	*>B	*>B
V	4EE	4A	8e	8cc#	4ee
.	.	.	8d	8b	.
=5	=5	=5	=5	=5	=5
V	4EE	8A	8c#	4a	4ee
.	.	8B	8d	.	.
Vb	4EE	8c#	4e	4a	4ee
.	.	8A	.	.	.
I	4AA	8D	8e	4a	4ff#
.	.	8E	16d	.	.
.	.	.	16c#	.	.
Ib	4AA	8F#	4d	4a	4ff#
.	.	8D	.	.	.
!!linebreak: 2
=6	=6	=6	=6	=6	=6
V;	2EE;	2AA;	2c#;	2a;	2ee;
r	4r	4r	4r	4r	4r
V	4EE	4A	4a	4cc#	4ee
=7	=7	=7	=7	=7	=7
I	4AA	8d	4a	4dd	8ff#
.	.	8e	.	.	8gg#
iii	4CC#	8f#	4a	4cc#	4aa
.	.	8c#	.	.	.
vi7b	4FF#	8d	4f#	4b	4aa
.	.	8B	.	.	.
V/V	4BB	8e	4e	4b	4gg#
.	.	8E	.	.	.
=8	=8	=8	=8	=8	=8
V;	2EE;	2A;	2e;	2cc#;	2aa;
r	4r	4r	4r	4r	4r
I	4AA	4D	4f#	4dd	4aa
=9	=9	=9	=9	=9	=9
IV	4DD	8G	4g	8dd	4bb
.	.	8F#	.	8ee	.
vii/ii	4AA#	8E	4f#	4ff#	4aa
.	.	8D#	.	.	.
ii	4BB	8E	4b	8ff#	4gg
.	.	8G	.	4ee	.
iiio7b	8CC#	8A	8cc	.	4ff#
V/ii	8FF#	8B	8b	8dd#	.
=10	=10	=10	=10	=10	=10
ii;	2BB;	2E;	2b;	2ee;	2gg;
r	4r	4r	4r	4r	4r
Ib	4AA	8F#	4a	4dd	4ff#
.	.	8G	.	.	.
=11	=11	=11	=11	=11	=11
V	4EE	4A	4a	4cc#	4ee
I	8AA	8d	8a	4dd	8.ff#
vi	8FF#	8B	8b	.	.
.	.	.	.	.	16gg
ii7b	4BB	8G	8b	4dd	4.ee
.	.	8E	8g	.	.
V	4EE	8A	8.e	4cc#	.
.	.	8AA	.	.	8dd
.	.	.	16a	.	.
=12	=12	=12	=12	=12	=12
I;	2.AA;	2.D;	2.f#;	2.a;	2.dd;
==	==	==	==	==	==
*-	*-	*-	*-	*-	*-
!!chor2scor: -l 2 -s 0.6 -o %b.pmx
!!!YEC: Copyright 1994, David Huron
!!!YEC: Changes/Additions 2001 by Craig Stuart Sapp
!!!YEN: United States of America
!!!SMA: 371 Bach Chorales, edited by Ludwig Erk, C.F. Peters
!!!PDT: 1850, 1865
!!!ONB: Harmony and Root analysis done manually
